X:36
T: LOTT IST TODT
N: E1032
O: Europa, Mitteleuropa, Deutschland, Thueringen; Sachsen
R: Tanz - Lied
M: 2/4
L: 1/8
K: G
 | BdG2 | BdG2 |
cege | edd2 |
BdG2 | BdG2 |
ABcF | AGG2

@@@ Tune index: 4720
